X:032
T: Erin Go Bra[u]gh
N: O'Farrell's Pocket Companion v.1 (Sky ed. p.31)
N: "Irish"
M: C
L: 1/8
Q: 100
R: march
K: D
A2 |d2 f>d dc Bz/A/|B>A Bd/c/ BA Fz/B/|AGFE D>EF>A|
B>d cB/c/ d2 :|A2|d2 d>e f2 f>a|g2 f>e fd B>c|
d>efd d>cBA| B>A Bd/c/ BA Ff/g/|agfe d2 f/e/d/c/|
BA Bd/c/ BA HF2 dB|AGFE D>EF>A| B>g f/e/d/c/ d2 :|
